16x16/actions/format-text-subscript.svg

<svg viewBox="0 0 16 16" xmlns="http://www.w3.org/2000/svg"><path d="m6.383 2-4.383 11h1.357l1.19-3h5.453v-2.172l-2.252-5.828zm.68 1.328c.113.376.711 2.082 1.796 5.115l.225.557h-4.143zm3.937 5.672v5h2.5a1.5 1.5 0 0 0 1.5-1.5c0-.533-.268-1.015-.688-1.281.116-.213.188-.46.188-.719a1.5 1.5 0 0 0 -1.5-1.5zm1 1h1a.5.5 0 0 1 0 1h-1zm0 2h1.5a.5.5 0 1 1 0 1h-1.5z" fill="#8b9cbe"/></svg>

<svg xmlns="http://www.w3.org/2000/svg" viewBox="0 0 16 16"><path style="fill:currentColor;fill-opacity:1;stroke:none;color:#8b9cbe" d="M6.383 2 2 13h1.357l1.19-3H10V7.828L7.748 2H6.383zm.68 1.328c.113.376.711 2.082 1.796 5.115L9.084 9H4.941l2.122-5.672zM11 9v5h2.5a1.5 1.5 0 0 0 1.5-1.5c0-.533-.268-1.015-.688-1.281.116-.213.188-.46.188-.719A1.5 1.5 0 0 0 13 9h-2zm1 1h1a.5.5 0 0 1 0 1h-1v-1zm0 2h1.5a.5.5 0 1 1 0 1H12v-1z"/></svg>
